docs/img/icon1/aboutUs-comma992.svg

<svg width="1771" height="1953" fill="none" xmlns="http://www.w3.org/2000/svg"><path d="M1200.42 1952.5H178.423c-62.778 0-109.036-15.15-138.774-45.44C13.216 1872.98 0 1819.97 0 1748.02v-227.2c0-71.95 13.216-123.07 39.65-153.36 29.737-34.08 75.995-51.12 138.773-51.12H1117c91.22 0 164-77.84 164-149.84v-94.4H446.417c-62.778 0-109.036-15.15-138.773-45.44-26.433-34.08-39.65-87.093-39.65-159.04V204.48c0-71.947 13.217-123.067 39.65-153.36C337.381 17.04 383.639 0 446.418 0H1560.99c62.78 0 107.39 17.04 133.82 51.12 29.74 30.293 44.61 81.413 44.61 153.36v890.34c0 287.79 93.47 509.31-42 653.2-97.08 182.98-122.08 204.48-497 204.48z" fill="#232323"/></svg>

<svg width="1771" height="1953" viewBox="0 0 1771 1953" fill="none" xmlns="http://www.w3.org/2000/svg">
<path d="M1200.42 1952.5L178.423 1952.5C115.645 1952.5 69.3867 1937.35 39.6494 1907.06C13.2163 1872.98 0 1819.97 0 1748.02L0 1520.82C0 1448.87 13.2163 1397.75 39.6494 1367.46C69.3867 1333.38 115.645 1316.34 178.423 1316.34C178.423 1316.34 811 1316.34 1117 1316.34C1208.22 1316.34 1281 1238.5 1281 1166.5C1281 1094.5 1281 1072.1 1281 1072.1L446.417 1072.1C383.639 1072.1 337.381 1056.95 307.644 1026.66C281.211 992.58 267.994 939.567 267.994 867.62L267.994 204.48C267.994 132.533 281.211 81.4134 307.644 51.12C337.381 17.04 383.639 0 446.418 0L1560.99 0C1623.77 0 1668.38 17.04 1694.81 51.12C1724.55 81.4134 1739.42 132.533 1739.42 204.48L1739.42 1094.82C1739.42 1382.61 1832.89 1604.13 1697.42 1748.02C1600.34 1931 1575.34 1952.5 1200.42 1952.5Z" fill="#232323"/>
</svg>
